public/theme/icons/inactive-vegan.svg

<svg width="33" height="34" viewBox="0 0 33 34" fill="none" xmlns="http://www.w3.org/2000/svg">
<circle cx="15" cy="15" r="15" fill="#E1E1E1"/>
<path fill-rule="evenodd" clip-rule="evenodd" d="M29.9731 15.9064C29.9909 15.6066 30 15.3043 30 15C30 6.71573 23.2843 0 15 0C6.71573 0 0 6.71573 0 15C0 23.2843 6.71573 30 15 30C16.1167 30 17.2049 29.878 18.252 29.6465L7.58322 18.9777L11.8714 14.6895L16.7371 19.5552L22.6074 8.54077L29.9731 15.9064Z" fill="#E1E1E1"/>
<g filter="url(#filter0_d_105_29635)">
<path fill-rule="evenodd" clip-rule="evenodd" d="M22.8248 8.90137C22.7245 8.5047 22.3261 8.27487 21.9325 8.38665C20.3667 8.83135 16.6104 10.0933 15.1912 12.2919C13.6321 14.7071 14.3634 19.0738 14.744 20.8182C14.8353 21.2368 15.254 21.4783 15.662 21.3478C17.3625 20.8039 21.5088 19.2509 22.819 16.6922C24.0118 14.363 23.2237 10.4795 22.8248 8.90137ZM6.8707 13.2564C6.46174 13.2444 6.13771 13.5684 6.14974 13.9774C6.18582 15.204 6.40443 17.6811 7.53953 18.9357C8.7884 20.3161 11.5459 20.6579 12.8927 20.7423C13.3202 20.7691 13.6624 20.4269 13.6356 19.9993C13.5512 18.6526 13.2094 15.8951 11.829 14.6462C10.5744 13.5111 8.09733 13.2925 6.8707 13.2564Z" fill="white"/>
</g>
<defs>
<filter id="filter0_d_105_29635" x="2.14941" y="6.3584" width="25.3018" height="21.0249" filterUnits="userSpaceOnUse" color-interpolation-filters="sRGB">
<feFlood flood-opacity="0" result="BackgroundImageFix"/>
<feColorMatrix in="SourceAlpha" type="matrix" values="0 0 0 0 0 0 0 0 0 0 0 0 0 0 0 0 0 0 127 0" result="hardAlpha"/>
<feOffset dy="2"/>
<feGaussianBlur stdDeviation="2"/>
<feComposite in2="hardAlpha" operator="out"/>
<feColorMatrix type="matrix" values="0 0 0 0 0 0 0 0 0 0 0 0 0 0 0 0 0 0 0.1 0"/>
<feBlend mode="normal" in2="BackgroundImageFix" result="effect1_dropShadow_105_29635"/>
<feBlend mode="normal" in="SourceGraphic" in2="effect1_dropShadow_105_29635" result="shape"/>
</filter>
</defs>
</svg>

<svg xmlns="http://www.w3.org/2000/svg" width="33" height="34" fill="none"><circle cx="15" cy="15" r="15" fill="#E1E1E1"/><path fill="#E1E1E1" fill-rule="evenodd" d="M29.973 15.906Q30 15.456 30 15c0-8.284-6.716-15-15-15S0 6.716 0 15s6.716 15 15 15a15 15 0 0 0 3.252-.354L7.583 18.979l4.288-4.289 4.866 4.866 5.87-11.014z" clip-rule="evenodd"/><g filter="url(#a)"><path fill="#fff" fill-rule="evenodd" d="M22.825 8.901a.713.713 0 0 0-.892-.514c-1.566.444-5.323 1.706-6.742 3.905-1.559 2.415-.828 6.782-.447 8.526a.71.71 0 0 0 .918.53c1.7-.544 5.847-2.097 7.157-4.656 1.193-2.329.405-6.212.006-7.79M6.87 13.256a.694.694 0 0 0-.721.721c.036 1.227.254 3.704 1.39 4.959 1.248 1.38 4.006 1.722 5.353 1.806a.693.693 0 0 0 .743-.743c-.085-1.346-.427-4.104-1.807-5.353-1.255-1.135-3.732-1.354-4.958-1.39" clip-rule="evenodd"/></g><defs><filter id="a" width="25.302" height="21.025" x="2.149" y="6.358" color-interpolation-filters="sRGB" filterUnits="userSpaceOnUse"><feFlood flood-opacity="0" result="BackgroundImageFix"/><feColorMatrix in="SourceAlpha" result="hardAlpha" values="0 0 0 0 0 0 0 0 0 0 0 0 0 0 0 0 0 0 127 0"/><feOffset dy="2"/><feGaussianBlur stdDeviation="2"/><feComposite in2="hardAlpha" operator="out"/><feColorMatrix values="0 0 0 0 0 0 0 0 0 0 0 0 0 0 0 0 0 0 0.1 0"/><feBlend in2="BackgroundImageFix" result="effect1_dropShadow_105_29635"/><feBlend in="SourceGraphic" in2="effect1_dropShadow_105_29635" result="shape"/></filter></defs></svg>
